symbols/web/soap/materialsymbolssharp/soap_20px.svg

<svg xmlns="http://www.w3.org/2000/svg" height="20" width="20"><path d="M11.875 6.208q.229 0 .406-.177.177-.177.177-.406 0-.229-.177-.406-.177-.177-.406-.177-.229 0-.406.177-.177.177-.177.406 0 .229.177.406.177.177.406.177Zm0 1.334q-.792 0-1.354-.563-.563-.562-.563-1.354t.563-1.354q.562-.563 1.354-.563t1.354.563q.563.562.563 1.354t-.563 1.354q-.562.563-1.354.563Zm4.792-2.167q.166 0 .271-.104.104-.104.104-.271 0-.167-.104-.271-.105-.104-.271-.104-.167 0-.271.104-.104.104-.104.271 0 .167.104.271.104.104.271.104Zm0 1.333q-.709 0-1.209-.5-.5-.5-.5-1.208t.5-1.208q.5-.5 1.209-.5.708 0 1.208.5t.5 1.208q0 .708-.5 1.208t-1.208.5ZM13.75 3.333q-.521 0-.885-.364-.365-.365-.365-.886t.365-.885q.364-.365.885-.365t.885.365q.365.364.365.885t-.365.886q-.364.364-.885.364ZM.833 19.167v-8.646l6.813-6.459 1.396 1.48-1.604 2.833h9.229v2.167h-6.584v.708h8.25v2.167h-8.25v.708H17.5v2.167h-7.417V17h5.75v2.167Zm1.75-1.75h5.75v-7.292h-2.5V8.188l-3.25 3.062Zm2.875-4.625Z"/></svg>

<svg xmlns="http://www.w3.org/2000/svg" height="20" width="20"><path d="M11.875 6.208Q12.104 6.208 12.281 6.031Q12.458 5.854 12.458 5.625Q12.458 5.396 12.281 5.219Q12.104 5.042 11.875 5.042Q11.646 5.042 11.469 5.219Q11.292 5.396 11.292 5.625Q11.292 5.854 11.469 6.031Q11.646 6.208 11.875 6.208ZM11.875 7.542Q11.083 7.542 10.521 6.979Q9.958 6.417 9.958 5.625Q9.958 4.833 10.521 4.271Q11.083 3.708 11.875 3.708Q12.667 3.708 13.229 4.271Q13.792 4.833 13.792 5.625Q13.792 6.417 13.229 6.979Q12.667 7.542 11.875 7.542ZM16.667 5.375Q16.833 5.375 16.938 5.271Q17.042 5.167 17.042 5Q17.042 4.833 16.938 4.729Q16.833 4.625 16.667 4.625Q16.5 4.625 16.396 4.729Q16.292 4.833 16.292 5Q16.292 5.167 16.396 5.271Q16.5 5.375 16.667 5.375ZM16.667 6.708Q15.958 6.708 15.458 6.208Q14.958 5.708 14.958 5Q14.958 4.292 15.458 3.792Q15.958 3.292 16.667 3.292Q17.375 3.292 17.875 3.792Q18.375 4.292 18.375 5Q18.375 5.708 17.875 6.208Q17.375 6.708 16.667 6.708ZM13.75 3.333Q13.229 3.333 12.865 2.969Q12.5 2.604 12.5 2.083Q12.5 1.562 12.865 1.198Q13.229 0.833 13.75 0.833Q14.271 0.833 14.635 1.198Q15 1.562 15 2.083Q15 2.604 14.635 2.969Q14.271 3.333 13.75 3.333ZM0.833 19.167V10.521L7.646 4.062L9.042 5.542L7.438 8.375H16.667V10.542H10.083V11.25H18.333V13.417H10.083V14.125H17.5V16.292H10.083V17H15.833V19.167ZM2.583 17.417H8.333V10.125H5.833V8.188L2.583 11.25ZM5.458 12.792Z"/></svg>
